icons-rebrand/svg/application-panel-regular.svg

<svg width="32" height="32" viewBox="0 0 32 32" fill="none" xmlns="http://www.w3.org/2000/svg">
<path d="M25 5.26001H7C5.74063 5.26133 4.53322 5.7622 3.6427 6.65271C2.75219 7.54323 2.25132 8.75064 2.25 10.01V21.989C2.25159 23.2483 2.75254 24.4556 3.643 25.346C4.53345 26.2365 5.74071 26.7374 7 26.739H25C26.2594 26.7377 27.4668 26.2368 28.3573 25.3463C29.2478 24.4558 29.7487 23.2484 29.75 21.989V10.009C29.7484 8.74981 29.2474 7.54266 28.3569 6.65236C27.4665 5.76207 26.2592 5.26133 25 5.26001ZM3.75 21.988V10.008C3.75159 9.14673 4.09457 8.32121 4.70378 7.71237C5.31298 7.10354 6.13872 6.76107 7 6.76001H13.249V25.24H7C6.13837 25.239 5.31234 24.8962 4.70307 24.2869C4.09381 23.6777 3.75106 22.8516 3.75 21.99V21.988ZM28.25 21.988C28.2489 22.8496 27.9062 23.6757 27.2969 24.2849C26.6877 24.8942 25.8616 25.237 25 25.238H14.75V6.75901H25C25.8616 6.76007 26.6877 7.10282 27.2969 7.71208C27.9062 8.32135 28.2489 9.14738 28.25 10.009V21.989V21.988Z" fill="#0F0F0F"/>
<path d="M6.99512 12.75H10.0021C10.201 12.75 10.3918 12.671 10.5324 12.5303C10.6731 12.3897 10.7521 12.1989 10.7521 12C10.7521 11.8011 10.6731 11.6103 10.5324 11.4697C10.3918 11.329 10.201 11.25 10.0021 11.25H6.99512C6.7962 11.25 6.60544 11.329 6.46479 11.4697C6.32413 11.6103 6.24512 11.8011 6.24512 12C6.24512 12.1989 6.32413 12.3897 6.46479 12.5303C6.60544 12.671 6.7962 12.75 6.99512 12.75ZM10.0021 15.25H6.99512C6.7962 15.25 6.60544 15.329 6.46479 15.4697C6.32413 15.6103 6.24512 15.8011 6.24512 16C6.24512 16.1989 6.32413 16.3897 6.46479 16.5303C6.60544 16.671 6.7962 16.75 6.99512 16.75H10.0021C10.201 16.75 10.3918 16.671 10.5324 16.5303C10.6731 16.3897 10.7521 16.1989 10.7521 16C10.7521 15.8011 10.6731 15.6103 10.5324 15.4697C10.3918 15.329 10.201 15.25 10.0021 15.25ZM10.0021 19.25H6.99512C6.7962 19.25 6.60544 19.329 6.46479 19.4697C6.32413 19.6103 6.24512 19.8011 6.24512 20C6.24512 20.1989 6.32413 20.3897 6.46479 20.5303C6.60544 20.671 6.7962 20.75 6.99512 20.75H10.0021C10.201 20.75 10.3918 20.671 10.5324 20.5303C10.6731 20.3897 10.7521 20.1989 10.7521 20C10.7521 19.8011 10.6731 19.6103 10.5324 19.4697C10.3918 19.329 10.201 19.25 10.0021 19.25Z" fill="#0F0F0F"/>
</svg>

<svg width="32" height="32" viewBox="0 0 32 32" fill="none" xmlns="http://www.w3.org/2000/svg"><path d="M25 5.26H7a4.755 4.755 0 0 0-4.75 4.75v11.979A4.756 4.756 0 0 0 7 26.739h18a4.755 4.755 0 0 0 4.75-4.75v-11.98A4.755 4.755 0 0 0 25 5.26zM3.75 21.988v-11.98A3.254 3.254 0 0 1 7 6.76h6.249v18.48H7a3.254 3.254 0 0 1-3.25-3.25zm24.5 0a3.254 3.254 0 0 1-3.25 3.25H14.75V6.759H25a3.254 3.254 0 0 1 3.25 3.25v11.98z" fill="#0F0F0F"/><path d="M6.995 12.75h3.007a.75.75 0 0 0 0-1.5H6.995a.75.75 0 0 0 0 1.5zM10.002 15.25H6.995a.75.75 0 0 0 0 1.5h3.007a.75.75 0 0 0 0-1.5zM10.002 19.25H6.995a.75.75 0 0 0 0 1.5h3.007a.75.75 0 0 0 0-1.5z" fill="#0F0F0F"/></svg>
